src/people-body/body-parts/1F442.svg

<svg id="emoji" viewBox="0 0 72 72" xmlns="http://www.w3.org/2000/svg">
  <g id="grid">
    <path fill="#b3b3b3" d="M68,4V68H4V4H68m4-4H0V72H72V0Z"/>
    <path fill="none" stroke="#00a5ff" stroke-miterlimit="10" stroke-width="0.1" d="M12.923,10.9583H59.0769A1.9231,1.9231,0,0,1,61,12.8814V59.0352a1.9231,1.9231,0,0,1-1.9231,1.9231H12.9231A1.9231,1.9231,0,0,1,11,59.0352V12.8813A1.923,1.923,0,0,1,12.923,10.9583Z"/>
    <rect x="16" y="4" rx="2.2537" width="40" height="64" fill="none" stroke="#00a5ff" stroke-miterlimit="10" stroke-width="0.1"/>
    <rect x="16" y="4" rx="2.2537" width="40" height="64" transform="translate(72) rotate(90)" fill="none" stroke="#00a5ff" stroke-miterlimit="10" stroke-width="0.1"/>
    <circle cx="36" cy="36" r="29" fill="none" stroke="#00a5ff" stroke-miterlimit="10" stroke-width="0.1"/>
  </g>
  <g id="color"/>
  <g id="hair"/>
  <g id="skin">
    <path fill="#fcea2b" stroke="none" d="M25.1071,19.7483C29.7321,2.2067,61,7,49.7113,35.665c-14.5919,35.7917-32.7917,24.6771-29.7292,13"/>
  </g>
  <g id="skin-shadow">
    <path fill="#f1b31c" stroke="none" d="M45.6875,35.6144C49.3512,13.7369,31.125,18.375,29.6819,23.9375 C33.6562,8.0625,53.7734,14.3451,45.6875,35.6144z"/>
    <path fill="#f1b31c" stroke="none" d="M34.1629,27.6337c4.4385,7,8.3371,13.9079,2.3371,16.6163c-1.3969,0.5735-2.8765,0.4132-4.3824,1.1735 c-1.5343,0.7223-1.8192,1.3265-3.6385,3.2848c-2.5625,2.0625-5.7708-1.5465-3.9583-3.6875 c3.0729-3.3958,6.4479-3.9271,4.6667-7.2083c-1.2187-2.2047,0.4957-5.0277,4.402-3.9027"/>
  </g>
  <g id="line">
    <path fill="none" stroke="#000000" stroke-linecap="round" stroke-linejoin="round" stroke-miterlimit="10" stroke-width="2" d="M26.125,19.625C30.75,2.0833,61,7.875,49.6875,35.9583c-14.5919,35.7917-31.875,25-28.8125,13.3229"/>
    <path fill="none" stroke="#000000" stroke-linecap="round" stroke-linejoin="round" stroke-miterlimit="10" stroke-width="2" d="M35.1031,28C39.5417,35,42.5,41.5417,36.5,44.25c-1.3969,0.5735-2.8765,0.4132-4.3824,1.1735 c-1.5343,0.7223-1.8192,1.3265-3.6385,3.2848c-2.5625,2.0625-5.7708-1.5465-3.9583-3.6875 c3.0729-3.3958,6.4479-3.9271,4.6667-7.2083c-1.2187-2.2047-0.4062-5.2812,3.5-4.1562"/>
    <path fill="none" stroke="#000000" stroke-linecap="round" stroke-linejoin="round" stroke-miterlimit="10" stroke-width="2" d="M29.6819,23.9375c3.9744-15.875,24.8326-10.2582,15.2399,11.1183"/>
  </g>
</svg>

<svg viewBox="0 0 72 72" xmlns="http://www.w3.org/2000/svg"><path fill="#b3b3b3" d="M68 4v64H4V4h64m4-4H0v72h72V0z"/><path fill="none" stroke="#00a5ff" stroke-miterlimit="10" stroke-width=".1" d="M12.923 10.958h46.154A1.923 1.923 0 0161 12.881v46.154a1.923 1.923 0 01-1.923 1.923H12.923A1.923 1.923 0 0111 59.035V12.881a1.923 1.923 0 011.923-1.923z"/><rect x="16" y="4" rx="2.254" width="40" height="64" fill="none" stroke="#00a5ff" stroke-miterlimit="10" stroke-width=".1"/><rect x="16" y="4" rx="2.254" width="40" height="64" transform="rotate(90 36 36)" fill="none" stroke="#00a5ff" stroke-miterlimit="10" stroke-width=".1"/><circle cx="36" cy="36" r="29" fill="none" stroke="#00a5ff" stroke-miterlimit="10" stroke-width=".1"/><g stroke-linecap="round" stroke-miterlimit="10" stroke-width="6" stroke="#fff" fill="none" stroke-linejoin="round"><path d="M26.125 19.625C30.75 2.083 61 7.875 49.688 35.958c-14.592 35.792-31.876 25-28.813 13.323"/><path d="M35.103 28c4.439 7 7.397 13.542 1.397 16.25-1.397.574-2.877.413-4.382 1.173-1.535.723-1.82 1.327-3.639 3.285-2.562 2.063-5.77-1.546-3.958-3.687 3.073-3.396 6.448-3.927 4.667-7.209-1.22-2.204-.407-5.28 3.5-4.156m-3.006-9.718c3.974-15.875 24.832-10.259 15.24 11.118"/></g><path fill="#fcea2b" d="M25.107 19.748C29.732 2.207 61 7 49.711 35.665c-14.592 35.792-32.791 24.677-29.729 13"/><path d="M45.688 35.614c3.663-21.877-14.563-17.239-16.006-11.676 3.974-15.875 24.091-9.593 16.006 11.676zm-11.525-7.98c4.438 7 8.337 13.908 2.337 16.616-1.397.574-2.877.413-4.382 1.173-1.535.723-1.82 1.327-3.639 3.285-2.562 2.063-5.77-1.546-3.958-3.687 3.073-3.396 6.448-3.927 4.667-7.209-1.22-2.204.495-5.027 4.402-3.902" fill="#f1b31c"/><g fill="none" stroke="#000" stroke-linecap="round" stroke-linejoin="round" stroke-miterlimit="10" stroke-width="2"><path d="M26.125 19.625C30.75 2.083 61 7.875 49.688 35.958c-14.592 35.792-31.876 25-28.813 13.323"/><path d="M35.103 28c4.439 7 7.397 13.542 1.397 16.25-1.397.574-2.877.413-4.382 1.173-1.535.723-1.82 1.327-3.639 3.285-2.562 2.063-5.77-1.546-3.958-3.687 3.073-3.396 6.448-3.927 4.667-7.209-1.22-2.204-.407-5.28 3.5-4.156m-3.006-9.718c3.974-15.875 24.832-10.259 15.24 11.118"/></g></svg>
